!!!!SEGMENT: pl-cz--d-ii-29--001_elsner-jozef--msza-f-op-35-kyrie.krn
!!!id: 18xx:179
!!!COM: Elsner, Józef
!!!COM-rism: pe30000957
!!!CDT: 1769/06/01-1854/04/18
!!!CNT: Polish
!!!OTL: Msza F op. 35 - Kyrie
!!!PDT:
!!!SMS-siglum: PL-CZ
!!!SMS-shelfmark: D II-29
!!!NIFC-rismID:
!!!URL-scan: http://repozytorium.nifc.pl/skany/pl-cz-nut--dii-29
!!!ONB-nifc: UWAGA: części Mszy: Kyrie, Gloria, Graduale, Credo, Offertorium, Sanctus, Agnus Dei
**kern	**kern	**kern	**text	**text	**text	**dynam	**kern	**text	**dynam	**kern	**text	**dynam	**kern	**text	**dynam
*part5	*part5	*part4	*part4	*part4	*part4	*part4	*part3	*part3	*part3	*part2	*part2	*part2	*part1	*part1	*part1
*staff6	*staff5	*staff4	*staff4	*staff4	*staff4	*	*staff3	*staff3	*	*staff2	*staff2	*	*staff1	*staff1	*
*I"ORGAN	*	*I"BASSO	*	*	*	*	*I"TENOR	*	*	*I"ALTO	*	*	*I"CANTO	*	*
*I'Org.	*	*I'B.	*	*	*	*	*I'T.	*	*	*I'A.	*	*	*I'S.	*	*
*clefF4	*clefG2	*clefF4	*	*	*	*	*clefC4	*	*	*clefC3	*	*	*clefC1	*	*
*k[b-]	*k[b-]	*k[b-]	*	*	*	*	*k[b-]	*	*	*k[b-]	*	*	*k[b-]	*	*
*M4/4	*M4/4	*M4/4	*	*	*	*	*M4/4	*	*	*M4/4	*	*	*M4/4	*	*
*met(c)	*met(c)	*met(c)	*	*	*	*	*met(c)	*	*	*met(c)	*	*	*met(c)	*	*
!	!LO:TX:a:t=problem:oznaczenie tempa również nad systemem organów	!	!	!	!	!	!	!	!	!	!	!	!LO:TX:a:B:t=Andante	!	!
4FF/ [4F	[4A/ 4c 4f	4F\	1.) Z od-	2.) Ze-	3.) Spraw	.	4A\	1.) Z od-	.	4c\	1.) Z od-	.	4f/	1.) Z od-	.
=1	=1	=1	=1	=1	=1	=1	=1	=1	=1	=1	=1	=1	=1	=1	=1
1FF 1F]	1A] 1c 1f	4F\	-gło-	-bra-	Bo-	.	4A\	-gło-	.	4c\	-gło-	.	4f/	-gło-	.
.	.	4F\	-sem	-ni	-że	.	4A\	-sem	.	4c\	-sem	.	4f/	-sem	.
.	.	4F\	wdzię-	dzis	byś-	.	4A\	wdzię-	.	4c\	wdzię-	.	4f/	wdzię-	.
.	.	4F\	-cznych	po-	-my	.	4A\	-cznych	.	4c\	-cznych	.	4f/	-cznych	.
.	.	.	.	.	.	>	.	.	>	.	.	>	.	.	>
=2	=2	=2	=2	=2	=2	=2	=2	=2	=2	=2	=2	=2	=2	=2	=2
2CC/ 2C	(4.B-/ 4.e 4.g	2C/	pie-	-spo-	zgo-	]	(4.B-\	pie-	]	(4.e\	pie-	]	(4.g\	pie-	]
.	8c/) 8f 8a	.	.	.	.	.	8c\)	.	.	8f\)	.	.	8a\)	.	]
4FF/ 4F	4A/ 4c 4f	4F\	-ni	-łu	-dni	.	4A\	-ni	.	4c\	-ni	.	4f/	-ni	.
4FF/ [4F	[<4A/ 4c 4f	4F\	ku	Skła-	Jak	.	4A\	ku	.	4c\	ku	.	4f/	ku	.
=3	=3	=3	=3	=3	=3	=3	=3	=3	=3	=3	=3	=3	=3	=3	=3
1FF 1F]	1A] 1c 1f	4F\	To-	-da-	Bra-	.	4A\	To-	.	4c\	To-	.	4f/	To-	.
.	.	4F\	-bie	-my	-cia	.	4A\	-bie	.	4c\	-bie	.	4f/	-bie	.
.	.	4F\	się	Ci	wie-	.	4A\	się	.	4c\	się	.	4f/	się	.
.	.	4F\	wzno-	o-	-cznie	.	4A\	wzno-	.	4c\	wzno-	.	4f/	wzno-	.
=4	=4	=4	=4	=4	=4	=4	=4	=4	=4	=4	=4	=4	=4	=4	=4
2DD/ 2C	(4.B-/ 4.e 4.g	2C/	-śie-	-fia-	ży-	>	(4.B-\	-śie-	>	(4.e\	-śie-	>	(4.g\	-śie-	>
.	8c/) 8f 8a	.	.	.	.	]	8c\)	.	]	8f\)	.	]	8a\)	.	]
4FF/ 4F	4A/ 4c 4f	4F\	my	-ry	-li	.	4A\	-my	.	4c\	-my	.	4f/	-my	.
4DD/ [4D	4A/ [4d 4f	4D\	przez	Z ie-	o-	.	4A\	przez	.	4c\	przez	.	4f/	przez	.
=5	=5	=5	=5	=5	=5	=5	=5	=5	=5	=5	=5	=5	=5	=5	=5
2.DD/ 2.D]	1A 1d] 1f	4D\	cie-	-dne-	-fia-	.	4A\	cie-	.	4d\	cie-	.	4f/	cie-	.
.	.	4D\	-bie	-go	-ry	.	4A\	-bie	.	4d\	-bie	.	4f/	-bie	.
.	.	4D\	wy-	Oy-	Two-	.	4A\	wy-	.	4d\	wy-	.	4f/	wy-	.
4CC/ 4C	.	4C\	-ba-	-ca	-iey	.	4A\	-ba-	.	4d\	-ba-	.	4f/	-ba-	.
=6	=6	=6	=6	=6	=6	=6	=6	=6	=6	=6	=6	=6	=6	=6	=6
2BBBn/ 2BBn	2G/ 2d 2f	2BBn/	-wie-	sto-	go-	>	2G/	-wie-	>	2d\	-wie-	>	(4.f/	-wie-	>
.	.	.	.	.	.	]	.	.	]	.	.	]	8g/)	.	]
4CC/ 4C	4G/ 4c 4e	4C/	-ni	-łu	-dni	.	4G/	-ni	.	4c\	-ni	.	4e/	-ni	.
4BBB-X/ 4BB-X	4c/ 4e 4g	4BB-X/	Twóy	Je-	Na-	.	4c\	Twóy	.	4e\	Twóy	.	4g/	Twóy	.
=7	=7	=7	=7	=7	=7	=7	=7	=7	=7	=7	=7	=7	=7	=7	=7
4AAA/ 4AA	4c/ 4f 4cc	4AA/	Chrys-	-dna-	-u-	.	4c\	Chrys-	.	4f\	Chrys-	.	4cc\	Chrys-	.
4BBB-/ 4BB-	4d/ 4f 4b-	4BB-/	-te	-kie	-ki	.	4d\	-te	.	4f\	-te	.	4b-\	-te	.
4CC/ 4C	4c/ 4f 4a	4C/	zgon	bie-	Twe	.	4c\	zgon	.	4f\	zgon	.	4a\	zgon	.
*	*^	*	*	*	*	*	*	*	*	*	*	*	*	*	*
4CC/ 4C	4g/	8.c\L 8.e	4C/	swię-	-rzem	peł-	.	8.c\L	swię-	.	4e\	swię-	.	4g\	swię-	.
.	.	16B-\Jk	.	.	.	.	.	16B-\Jk	.	.	.	.	.	.	.	.
*	*v	*v	*	*	*	*	*	*	*	*	*	*	*	*	*	*
=8	=8	=8	=8	=8	=8	=8	=8	=8	=8	=8	=8	=8	=8	=8	=8
2FF/ 2F	(4.B-/ 4.e 4.g	2F\	-cie-	da-	-ni-	.	(4.B-\	-cie-	.	(4.e\	-cie-	.	(4.g\	-cie-	.
.	8c/) 8f 8a	.	.	.	.	.	8c\)	.	.	8f\)	.	.	8a\)	.	.
4FF/ 4F	4A/ 4c 4f	4F\	-my	-ry	-li	.	4A\	-my	.	4c\	-my	.	4f/	-my	.
==	==	==	==	==	==	==	==	==	==	==	==	==	==	==	==
*-	*-	*-	*-	*-	*-	*-	*-	*-	*-	*-	*-	*-	*-	*-	*-
!!!system-decoration: [(s1,s2,s3,s4)]{(s5,s6)}
!!!ENC: Anna Matuszewska
!!!END: 2020-04-01
